X:8
T:Maggie Gowlach
R:reel
D:Lake Bras D'Or, Theresa Morrison
B:Kohler's
Q:333
L:1/8
M:C|
K:D
B|A2 FA B2 Bd|A2FA BEEd|A2 FA BcdB|AFEG FDD:|
||c|d2 fd Adfd|BABd edef|d2 fd egfe|dBAG FDDc|
d2 fd Adfd|BABd edef|abaf defe|dBAG FDD|]
